X:1
T:Title
%%score { ( 1 4 ) | ( 2 3 ) }
L:1/8
Q:1/4=112
M:4/4
K:Ab
V:1 treble nm="Grand Piano"
V:4 treble 
V:2 bass 
V:3 bass 
V:1
 [CE]2 [CEc]2 [CEB]2 .[CEA]2 | [DEA]2 [DEG]2 [DEG]4 | [DE]2 [DEd]2 [DEc]2 .[EFB]2 | %3
w: Ira~B.~Wilson * * *|||
 [EB]2 [EA]2 [CE]4 | [CE]2 [CEc]2 [CEB]2 .[CEA]2 | [B,EA]2 [B,EG]2 [EGB]4 | %6
w: |||
 [FA=d]2 [FAc]2 [=DFA]2 [A,DF]2 |[M:5/4] [G,E]2- [G,E]2- [G,E]6 |[M:4/4] c3 A FGAB | c2 [=Ec]2 c4 | %10
w: ||||
 B3 G EFGA | B2 [=DB]2 B4 | e4 z4 | e4 z4 |[M:5/4] c2 [Af]2 [Ae]3 [DEG]3 |[M:4/4] [CEA]8 |] %16
w: ||||||
V:2
 A,,2 E,2 E,,2 z[K:treble] B | B,,2 E,2 E,,2 E,2 | B,,2 E,2 E,,2 z[K:treble] c | %3
 A,,2 E,2 E,,2 E,2 | A,,2 E,2 E,,2 z[K:treble] B | B,,2 E,2 B,2 G,2 | F,2 B,2 B,,2 B,,2 | %7
[M:5/4] z4 d6 |[M:4/4] C3 A, F,G,A,B, | C2 [C,B,]2 [F,A,F]4 | B,3 G, E,F,G,A, | %11
 B,2 [B,,A,]2 [E,G,E]4 | E2- [F,E]2 [G,B,]4 | E2- [A,E]2 [B,D]4 | %14
[M:5/4] [A,EA]2[K:bass] [D,D]2 [E,C]3 E,3 |[M:4/4] A,,8 |] %16
V:3
 z4 z2 E,2[K:treble] | x8 | z4 z2 E,2[K:treble] | x8 | z4 z2 E,2[K:treble] | x8 | x8 | %7
[M:5/4] E,2- E,2- E,6 |[M:4/4] x8 | x8 | x8 | x8 | [E,G,]2 z2 z4 | [G,B,]2 z2 z4 | %14
[M:5/4] x2[K:bass] x8 |[M:4/4] x8 |] %16
V:4
 x8 | x8 | x8 | x8 | x8 | x8 | x8 |[M:5/4] x10 |[M:4/4] x8 | x8 | x8 | x8 | z2 A,2 E4 | z2 C2 E4 | %14
[M:5/4] x10 |[M:4/4] x8 |] %16

